!!!SOCIAL_FUNCTION:	war songs
!!!PDT:	1943
!!!OTL: No_30_Song_When_Carrying_Heades_of_the_Enemy_on_Poles_(a).krn
!!!REG: British Columbia
**kern	**kern
*staff2	*staff1
=1-	=1-
*clefF4	*clefF4
*k[b-e-a-d-g-]	*k[b-e-a-d-g-]
*M3/8	*M3/8
4.r	8r
.	16F\LL
.	16F\J
.	8A-\J
=2	=2
8GG-/	8d-\L
4r	8d-\
.	8d-\J
=3	=3
4.r	4e-\
.	8r
=4	=4
4.r	8B-\L
.	8A-\
.	8B-\J
=5||	=5||
*M7/8	*M7/8
2r	4A-\
.	8A-\L
.	8A-\J
4r	8r
.	8d-\L
8GG-/	8B-\J
=6!|:	=6!|:
*M6/8	*M6/8
2.r	4d-\
.	8r
.	8B-\
.	8r
.	8A-\
=7	=7
8GG-/	4B-\
8r	.
2r	8d-\
.	8B-\L
.	8A-\
.	8B-\J
=8||	=8
*M5/8	*
--d	=
*	*M5/8
8GG-/	8A-\L
2r	8A-\
.	8A-\
.	8A-\
.	16A-\Jk
.	16r
=9||	=9||
*M3/8	*M3/8
8GG-/	8B-\L
4r	8A-\
.	8B-\J
=10||	=10||
*M6/8	*M6/8
8r	8A-\L
8GG-/	8A-\
8r	8A-\J
8r	8A-\L
8r	8A-\
8GG-/	8A-\J
=11||	=11||
*M5/8	*M5/8
2r	8G-\L
.	8G-\
.	8G-\
.	8G-\J
8r	8r
=12||	=12||
*M3/8	*M3/8
8GG-/	8B-\L
4r	8A-\
.	8B-\J
=13||	=13||
*M5/8	*M5/8
4r	8A-\L
.	8A-\
8r	8A-\
8GG-/	8A-\
8r	8A-\J
==:|!	==:|!
*-	*-
